Vector/symbolic/status/battery-level-10-symbolic.svg

<svg width="16" height="16" enable-background="new" version="1.1" xmlns="http://www.w3.org/2000/svg">
 <path d="m6 1v1h-3v1 11c0 0.554 0.446 1 1 1h4.7129c-1.0343-0.82662-1.7129-2.0821-1.7129-3.5 0-2.4734 2.0266-4.5 4.5-4.5 0.52807 0 1.028 0.10993 1.5 0.2793v-4.2793-1h-3v-1h-4zm4 8.6172c-0.57873 0.45573-1 1.0799-1 1.8828s0.42127 1.4271 1 1.8828v-0.38281-1-2.3828z" class="error" fill="#e74c3c" opacity=".35"/>
 <path d="m3 13v1c0 0.554 0.446 1 1 1h4.7129c-0.6491-0.51876-1.1482-1.2047-1.4336-2h-4.2793zm6.5918 0c0.12301 0.13878 0.26017 0.26624 0.4082 0.38281v-0.38281h-0.4082z" class="error" fill="#e74c3c"/>
 <path class="warning" d="m11.5 8a3.5 3.5 0 0 0-3.5 3.5 3.5 3.5 0 0 0 3.5 3.5 3.5 3.5 0 0 0 3.5-3.5 3.5 3.5 0 0 0-3.5-3.5zm-0.5 1h1v3h-1v-3zm0 4h1v1h-1v-1z" fill="#ff7f2a"/>
</svg>

<?xml version="1.0" encoding="UTF-8" standalone="no"?>
<svg
   width="16"
   height="16"
   enable-background="new"
   version="1.1"
   id="svg8"
   sodipodi:docname="battery-level-10-symbolic.svg"
   inkscape:version="1.1.1 (3bf5ae0d25, 2021-09-20, custom)"
   xmlns:inkscape="http://www.inkscape.org/namespaces/inkscape"
   xmlns:sodipodi="http://sodipodi.sourceforge.net/DTD/sodipodi-0.dtd"
   xmlns="http://www.w3.org/2000/svg"
   xmlns:svg="http://www.w3.org/2000/svg">
  <defs
     id="defs12" />
  <sodipodi:namedview
     id="namedview10"
     pagecolor="#ffffff"
     bordercolor="#666666"
     borderopacity="1.0"
     inkscape:pageshadow="2"
     inkscape:pageopacity="0.0"
     inkscape:pagecheckerboard="0"
     showgrid="false"
     inkscape:zoom="22.09375"
     inkscape:cx="6.1103253"
     inkscape:cy="10.432815"
     inkscape:window-width="1920"
     inkscape:window-height="1019"
     inkscape:window-x="0"
     inkscape:window-y="0"
     inkscape:window-maximized="1"
     inkscape:current-layer="svg8" />
  <path
     id="rect870"
     class="error"
     fill="#e74c3c"
     opacity="0.35"
     d="M 6 1 L 6 2 L 4 2 L 4 14 C 4 14.554 4.446 15 5 15 L 8.6855469 15 A 4.5 4.5 0 0 1 7 11.5 A 4.5 4.5 0 0 1 11.5 7 A 4.5 4.5 0 0 1 12 7.0292969 L 12 2 L 10 2 L 10 1 L 6 1 z " />
  <path
     d="m 4,13 v 1 c 0,0.554 0.446,1 1,1 H 8.7129 C 8.0638,14.48124 7.5647,13.7953 7.2793,13 Z m 5.5918,0 C 9.71481,13.13878 9.85197,13.26624 10,13.38281 V 13 Z"
     class="error"
     fill="#e74c3c"
     id="path4"
     sodipodi:nodetypes="cssccccccc" />
  <path
     class="warning"
     d="m11.5 8a3.5 3.5 0 0 0-3.5 3.5 3.5 3.5 0 0 0 3.5 3.5 3.5 3.5 0 0 0 3.5-3.5 3.5 3.5 0 0 0-3.5-3.5zm-0.5 1h1v3h-1v-3zm0 4h1v1h-1v-1z"
     fill="#ff7f2a"
     id="path6" />
</svg>
